X: 15
T: Orecks Scotch-measure
%R: reel
B: "A Collection of Original Scotch-Tunes", Henry Playford, 1700, ed. p.7 #15
F: http://imslp.org/wiki/A_Collection_of_Original_Scotch_Tunes_(Various)
Z: 2015 John Chambers <jc:trillian.mit.edu>
M: C|
L: 1/8
K: D
% - - - - - - - - - - - - - - - - - - - - - - - - - - - - -
dA |\
FGAB AF DA | dA FA fd Ad |\
fa Aa fg ce | c2 A4 Bc |\
dB GB GB gB |
ae ce ce af |\
gfed ce ae | f2 d4 |] fg |\
af df dA FA | dA GA FD GD |
GB AG FA dF | G2 E4 FA |\
AB AF Bd BG | ce cA fa fB |\
gfed ce ae | f2 d4 |]
% - - - - - - - - - - - - - - - - - - - - - - - - - - - - -

%%sep 1 1 500
%%sep 1 1 500

